X:1
T:Castle Nebulous
T:Castle Nebulous - Boss
T:Serpentine swarm of the Dragon King Bakal
%%score { 1 | 2 }
L:1/8
Q:1/4=178
M:4/4
K:D
V:1 treble nm="Piano" snm="Pno."
V:2 bass 
V:1
 [B,DFB][Cc] [Dd]6- | [Dd][B,FB][Cc][Dd] [Ee]4 | [DFd][Ee] [Ff]4 [Ee][Ff] | %3
 [Gg] [Bb]3 [^A^a][Bb] [cc']2 | [dfbd'][cc'] [^A^a]4 [Bb][cc'] | [Bb][Gg][Ff][Ee] [FBf]4 | %6
 [Ede][Ff] [Gdg]3 [Fdf][Gg][Bdb] | c[^A^a][Bb][cc'] [Bb][cc'] [dd']2 | [B,DFB][Cc] [Dd]6- | %9
 [Dd][B,FB][Cc][Dd] [Ee]4 | [DFd][Ee] [Ff]4 [Ee][Ff] | [Gg] [Bb]3 [^A^a][Bb] [cc']2 | %12
 [dfbd'][cc'] [^A^a]4 [Bb][cc'] | [Bb][Gg][Ff][Ee] [FBf]4 | [Ede][Ff] [Gdg]3 [Fdf][Gg][Bdb] | %15
 c[^A^a][Bb][cc'] [Bb][cc'] [dd']2 | z{/^a} [fb]3 =c'/b/=a b2 | %17
!8va(! d''d''d''d'' !///!e''4!8va)! | [Fdf]cB[Bdb] cB[Fdf]c | B[Gdg]cB [Ede]c[GBg]d | %20
 [Fdf]cB[B,DB] CB,[Dd]c | B [Cc]2 B [Dd]c[GBg]d | [Fdf]cB[Bdb] cB[Fdf]c | B[Gdg]cB [Ede]c[GBg]d | %24
 [Fdf]2 [Ece] [Fdf]2 [Ece] [Fdf]2 | [dd'][cc'][Bb][Ff] [Bb][Dd][Ee][Ff] | [Fdf]cB[Bdb] cB[Fdf]c | %27
 B[Gdg]cB [Ede]c[GBg]d | [Fdf]cB[B,DB] CB,[Dd]c | B [Cc]2 B [Dd]c[GBg]d | [Fdf]cB[Bdb] cB[Fdf]c | %31
 B[Gdg]cB [Ede]c [GBg]2 | [Fdf]2 [Ece] [Fdf]2 [Ece] [Fdf]2- | [Fdf]8 |] %34
V:2
!ped! [B,,,F,,B,,]4 [B,,D,F,B,]2 [B,,,B,,][B,,,B,,]- | %1
 [B,,,B,,][B,,F,]B,,B,, [B,,F,B,]2 [B,,,B,,][B,,,B,,] | %2
 [B,,,F,,B,,]4 [B,,D,F,B,]2 [B,,,B,,][B,,,B,,]- | [B,,,B,,][B,,F,]F,,F,, [B,,F,]2 B,,B,,, | %4
 [B,,,F,,B,,]4 [B,,F,B,]2 [B,,,B,,][B,,,B,,]- | [B,,,B,,][B,,F,]F,,F,, [B,,F,]F,,F,,F,,, | %6
 [G,,,D,,G,,]2 G,,[D,G,] G,,[D,G,]G,,G,,, | [F,,,F,,]F,,,F,,F,,, [^A,,,^A,,]A,,,A,,[A,,,A,,] | %8
 [B,,,F,,B,,]4 [B,,D,F,B,]2 [B,,,B,,][B,,,B,,]- | %9
 [B,,,B,,][B,,E,]B,,B,, [B,,F,B,]2 [B,,,B,,][B,,,B,,] | %10
 [B,,,F,,B,,]4 [B,,D,F,B,]2 [B,,,B,,][B,,,B,,]- | [B,,,B,,][B,,F,]F,,F,, [B,,F,]2 B,,B,,, | %12
 [B,,,F,,B,,]4 [B,,F,B,]2 [B,,,B,,][B,,,B,,]- | [B,,,B,,][B,,F,]F,,F,, [B,,F,]F,,F,,F,,, | %14
 [G,,,D,,G,,]2 G,,[D,G,] G,,[D,G,]G,,G,,, | [F,,,F,,]F,,,F,,F,,, [^A,,,^A,,]A,,,A,,[A,,,A,,] | %16
"_cresc." z8 | [F,B,F]2- [F,B,F]<[F,B,F] (3[F,B,F]2 [F,B,F]2 [F,B,F]2 | %18
 [B,,,F,,B,,]2 F,, [B,,F,]2 F,, [B,,F,]2 | F,, [B,,F,]2 F,, [G,,B,,G,]2 [E,,=C,E,]2 | %20
 [B,,,F,,B,,]2 F,, [B,,F,]2 F,, [B,,F,]2 | F,, [B,,F,]2 F,, [G,,B,,G,][F,,F,] [E,,=C,E,]2 | %22
 [B,,,F,,B,,]2 F,, [B,,F,]2 F,, [B,,F,]2 | F,, [B,,F,]2 F,, [G,,G,]2 [G,,=C,E,]2 | %24
 [B,,,F,,B,,]2 B,, [F,B,]2 B,, [F,B,]2 | B,, [F,B,]2 B,, [F,B,]B,,F,,B,,, | %26
 [B,,,F,,B,,]2 F,, [B,,F,]2 F,, [B,,F,]2 | F,, [B,,F,]2 F,, [F,,B,,G,]2 [E,,=C,E,]2 | %28
 [B,,,F,,B,,]2 F,, [B,,F,]2 F,, [B,,F,]2 | F,, [B,,F,]2 F,, [G,,B,,G,][F,,F,] [E,,=C,E,]2 | %30
 [B,,,F,,B,,]2 F,, [B,,F,]2 F,, [B,,F,]2 | F,, [B,,F,]2 F,, [G,,G,]2 [G,,=C,E,]2 | %32
 [B,,,F,,B,,]2 F,, [B,,F,]2 F,, [B,,F,]2 | !arpeggio![F,B,D]8!ped-up! |] %34

